X:62
T:Banshee, The
R:reel
C:Traditional
M:C|
K:G
|: G2GD EDB,D | GFGB d2 Bd | eeed BAGA | BAGE EDDE |
 G2 GD EDB,D | GFGB d2 Bd | eeed BAGA | BAGE EDD2 :|
|: eaag efge | dBBA B2 Bd | eB B2 gBfB | eBBA B2 Bd |
 eaag efge | dBBA B2 Bd | eeed BAGA | BAGE EDD2 :|

